Newaita-dark/.DP/22/slack-indicator-unread.svg

<svg xmlns="http://www.w3.org/2000/svg" xmlns:xlink="http://www.w3.org/1999/xlink" width="22px" height="22px" viewBox="0 0 22 22" version="1.1">
<g id="surface1">
<path style=" stroke:none;fill-rule:nonzero;fill:rgb(14.901961%,65.098041%,60.392159%);fill-opacity:1;" d="M 3.953125 6.179688 C 3.515625 6.433594 3.367188 6.984375 3.617188 7.421875 L 4.984375 9.785156 L 3.011719 10.921875 C 2.578125 11.175781 2.429688 11.730469 2.679688 12.164062 C 2.933594 12.601562 3.484375 12.75 3.921875 12.5 L 5.890625 11.363281 L 8.164062 15.300781 L 6.195312 16.4375 C 5.757812 16.6875 5.613281 17.242188 5.863281 17.679688 C 6.117188 18.113281 6.671875 18.261719 7.105469 18.011719 L 9.074219 16.875 L 9.984375 18.453125 C 10.238281 18.886719 10.792969 19.035156 11.226562 18.785156 C 11.664062 18.53125 11.8125 17.976562 11.558594 17.542969 L 10.652344 15.964844 L 14.589844 13.691406 L 15.5 15.265625 C 15.75 15.703125 16.304688 15.851562 16.742188 15.597656 C 17.179688 15.347656 17.328125 14.792969 17.074219 14.355469 L 16.164062 12.78125 L 18.132812 11.644531 C 18.570312 11.394531 18.71875 10.839844 18.46875 10.402344 C 18.214844 9.96875 17.660156 9.820312 17.226562 10.070312 L 15.253906 11.207031 L 12.980469 7.269531 L 14.953125 6.128906 C 15.386719 5.878906 15.535156 5.324219 15.285156 4.886719 C 15.03125 4.453125 14.480469 4.304688 14.042969 4.554688 L 12.074219 5.691406 L 10.707031 3.328125 C 10.457031 2.894531 9.902344 2.746094 9.464844 2.996094 C 9.027344 3.246094 8.878906 3.800781 9.132812 4.238281 L 10.496094 6.601562 L 6.558594 8.875 L 5.195312 6.511719 C 4.941406 6.078125 4.386719 5.929688 3.953125 6.179688 Z M 7.46875 10.453125 L 11.40625 8.179688 L 13.679688 12.117188 L 9.742188 14.390625 Z M 7.46875 10.453125 "/>
</g>
</svg>

<svg xmlns="http://www.w3.org/2000/svg" width="22" height="22"><path d="M3.953 6.18a.91.91 0 0 0-.336 1.242l1.367 2.363-1.972 1.137a.91.91 0 1 0 .91 1.578l1.969-1.14 2.277 3.94-1.973 1.137a.91.91 0 0 0 .91 1.575l1.97-1.137.91 1.574a.91.91 0 0 0 1.578-.906l-.91-1.578 3.937-2.274.91 1.575a.908.908 0 1 0 1.574-.907l-.91-1.578 1.969-1.136a.908.908 0 1 0-.906-1.575l-1.973 1.137L12.98 7.27l1.97-1.137a.914.914 0 0 0 .335-1.246.912.912 0 0 0-1.242-.332L12.07 5.69l-1.363-2.363a.91.91 0 0 0-1.574.91l1.363 2.364L6.56 8.875 5.195 6.512a.912.912 0 0 0-1.242-.332zm3.516 4.273l3.937-2.277 2.274 3.941-3.938 2.274zm0 0" fill="#26a69a"/></svg>
